X: 1
T: Gavotte from Celtic Brittany  [Em]
O: from Trouz Bras, NEFFA 2009
R: gavotte
M: 2/4
L: 1/8
Q: 1/4=150
Z: 2010 John Chambers <jc:trillian.mit.edu>
S: PDF MS from Dan Saloman
K: Em
|: "Em"EG ED | "(Am)"EF A2 | "D"F>G FG | "Em"E2 E2 :|
|: "Em"EB BG | "Am"AB cB | "D"AB AG/F/ | "G"GA BA |
|  "C"GF ED | "Am"EF A2 | "D"F>G FG | "Em"E2 E2 :|
